Origami/64x64/apps/gnome-pie.svg

<svg width="64" height="64" version="1" xmlns="http://www.w3.org/2000/svg">
 <path d="m53.945696 16.987767c-0.137999 1.52639-0.587996 3.05118-1.399991 4.469771-3.013981 5.271967-9.729939 7.103956-15.003906 4.087975-3.231979-1.847989-5.165967-5.088768-5.487965-8.534147-0.371998 4.150174 1.63399 8.332148 5.487965 10.534134 5.273967 3.015981 11.989925 1.183993 15.003906-4.087974 1.167993-2.039987 1.60199-4.295773 1.399991-6.469759zm-43.863724 2.936981c-0.4239969 3.13418 1.034994 6.35416 3.949176 8.020149 3.835175 2.191987 8.720745 0.857995 10.914731-2.977981 0.881994-1.54399 1.165992-3.255979 0.971994-4.897569-0.133999 0.991594-0.445998 1.975588-0.971994 2.897582-2.193986 3.835976-7.079556 5.169967-10.914731 2.977981-2.290186-1.309992-3.661377-3.585977-3.949176-6.020162zm-3.9843744 17.032093c-0.4181974 2.771982 0.8479946 5.639964 3.4297783 7.115955 3.3555791 1.917988 7.6283521 0.753995 9.5467401-2.601984 0.799995-1.397991 1.035793-2.951981 0.828195-4.431972-0.1254 0.829995-0.385598 1.65799-0.828195 2.431985-1.918388 3.355979-6.191161 4.519971-9.5467401 2.601983-1.9573876-1.117992-3.1405802-3.04598-3.4297783-5.115967zm35.983773 0.967994c-0.423997 3.13398 1.035993 6.35396 3.949975 8.019949 3.833976 2.191986 8.719945 0.857995 10.913931-2.977981 0.881995-1.54399 1.165993-3.25598 0.971994-4.897969-0.133999 0.991993-0.445997 1.975987-0.971994 2.897981-2.193986 3.835976-7.079955 5.169968-10.913931 2.977982-2.291986-1.309992-3.661977-3.585978-3.949975-6.019962zm3.823976 13.019918c-0.102 0.741995-0.293998 1.48399-0.647996 2.189986-1.731989 3.455978-5.939963 4.853969-9.393941 3.12198-2.107987-1.057993-3.437978-3.039981-3.769976-5.207967-0.395998 2.885982 1.019993 5.829963 3.769976 7.207955 3.453978 1.731989 7.661952 0.333997 9.393941-3.121981 0.675996-1.345991 0.861994-2.805982 0.647996-4.189973zm-31.7918 1.025993c-0.421597 2.419985 0.655396 4.945969 2.910182 6.235961 2.876382 1.643989 6.538559 0.643996 8.184548-2.231986 0.711996-1.247992 0.897994-2.637983 0.677996-3.951975-0.115999 0.667996-0.323998 1.329991-0.677996 1.951988-1.645989 2.875981-5.308166 3.875975-8.184548 2.231985-1.62899-0.931994-2.624784-2.517984-2.910182-4.235973z" style="opacity:.2"/>
 <path d="m22.977891 46.792585c2.876382 1.64429 3.874976 5.308967 2.230786 8.185148-1.644289 2.876382-5.308966 3.874976-8.185148 2.230786-2.877182-1.643989-3.875976-5.307966-2.231586-8.185948 1.644189-2.875982 5.307966-3.873976 8.185948-2.229986z" style="fill:#ffcf3f"/>
 <path d="m16.473332 30.924685c3.355779 1.918328 4.520972 6.193761 2.602584 9.54954-1.918388 3.355979-6.193761 4.519971-9.5493401 2.601983-3.3557788-1.917987-4.5209715-6.193961-2.6025836-9.549939 1.918388-3.355979 6.1937607-4.519972 9.5493397-2.601984z" style="fill:#7cc327"/>
 <path d="m21.969898 13.056798c3.833975 2.192386 5.165967 7.077955 2.973981 10.913931-2.191986 3.833976-7.078556 5.165967-10.913531 2.973981-3.835176-2.191986-5.1667679-7.078555-2.974382-10.913531 2.192387-3.835176 7.078556-5.166768 10.913932-2.974381z" style="fill:#27adc3"/>
 <path d="m48.457731 7.4528329c5.273166 3.0145811 7.104155 9.7331391 4.089774 15.006305-3.014581 5.273167-9.733139 7.104156-15.006306 4.089775-5.273166-3.014581-7.104155-9.733139-4.089774-15.006306 3.014581-5.2731666 9.733139-7.1041551 15.006306-4.0897741z" style="fill:#ffcf3f"/>
 <path d="m53.969696 31.056684c3.834976 2.192386 5.166767 7.078556 2.974381 10.913731-2.192386 3.834976-7.078555 5.166768-10.913731 2.974382-3.834976-2.192386-5.166767-7.078556-2.974381-10.913732 2.192386-3.834975 7.078555-5.166767 10.913731-2.974381z" style="fill:#7cc327"/>
 <path d="m42.13777 44.744598c3.454979 1.732669 4.85117 5.938163 3.118581 9.393141-1.732669 3.454978-5.938163 4.851169-9.393141 3.11858-3.454978-1.732669-4.851169-5.938162-3.11858-9.393141 1.732669-3.454978 5.938162-4.851169 9.39314-3.11858z" style="fill:#27adc3"/>
 <path d="m43.25 6.0039062c-3.899975-0.084799-7.724888 1.9136855-9.796875 5.5390628-1.066588 1.862693-1.514582 3.904344-1.431641 5.90039 0.081923-1.670908 0.542844-3.346238 1.431641-4.898437 2.071987-3.6253771 5.8969-5.6238616 9.796875-5.5390626 1.773989 0.0383998 3.559041 0.5070246 5.207031 1.4492187 3.377687 1.9312589 5.335575 5.3810329 5.517578 8.9980469 0.161104-3.970442-1.829425-7.8912262-5.517578-10-1.64799-0.9421941-3.433042-1.410819-5.207031-1.4492188zm-24.683594 6.0156248c-0.386998-0.0272-0.772252-0.024893-1.15625 0.003907-2.560584 0.191998-4.985077 1.611027-6.355468 4.007812-0.788795 1.379854-1.0771835 2.891902-0.996094 4.369141 0.077313-1.150078 0.3852-2.298539 0.996094-3.367188 1.370391-2.396785 3.794884-3.815813 6.355468-4.007812 0.383998-0.0288 0.769252-0.031107 1.15625-0.003907 1.160993 0.081 2.322397 0.41856 3.400391 1.035157 2.420783 1.383518 3.818316 3.840592 3.986328 6.427734 0.177622-2.941107-1.253868-5.868041-3.986328-7.429687-1.077994-0.616598-2.239398-0.954157-3.400391-1.035157zm-5.070312 17.998047c-0.338598-0.024-0.675721-0.022094-1.011719 0.003906-2.240386 0.167999-4.3596012 1.409826-5.5585938 3.507813-0.7071219 1.236623-0.9523815 2.589889-0.8613281 3.912109 0.0703065-0.994731 0.3322022-1.986768 0.8613281-2.912109 1.1989926-2.097987 3.3182078-3.339814 5.5585938-3.507813 0.335998-0.026 0.673121-0.027906 1.011719-0.003906 1.015994 0.071999 2.032768 0.370159 2.976562 0.910156 2.101666 1.201511 3.311368 3.326643 3.470703 5.570313 0.185883-2.596391-1.057852-5.192853-3.470703-6.572266-0.943794-0.539997-1.960568-0.836204-2.976562-0.908203zm37.068359 0.003906c-0.385997-0.028-0.7703-0.026093-1.154297 0.003907-2.559984 0.191998-4.987431 1.609828-6.357422 4.007812-0.788584 1.38047-1.075865 2.888905-0.99414 4.367188 0.077198-1.149817 0.383523-2.298261 0.99414-3.367188 1.369991-2.397984 3.797438-3.815814 6.357422-4.007812 0.383997-0.03 0.7683-0.031907 1.154297-0.003907 1.161993 0.079999 2.324351 0.417208 3.402344 1.033204 2.420784 1.384017 3.818316 3.842598 3.986328 6.429687 0.177622-2.940967-1.253867-5.867477-3.986328-7.429687-1.077993-0.615996-2.240351-0.953205-3.402344-1.033204zm-11.107422 13.996094c-2.721982-0.175999-5.414851 1.255673-6.714843 3.847656-0.58221 1.159251-0.782538 2.400432-0.695313 3.607422 0.061964-0.882952 0.27328-1.767102 0.695313-2.607422 1.299992-2.591983 3.992861-4.023655 6.714843-3.847656 0.905995 0.057999 1.81374 0.292612 2.677735 0.72461 2.281418 1.14403 3.627108 3.367696 3.798828 5.740234 0.190177-2.732073-1.198423-5.436247-3.798828-6.740234-0.863995-0.431998-1.77174-0.666611-2.677735-0.72461zm-19.898437 1.998047c-1.920388 0.143999-3.738032 1.211777-4.765625 3.009766-0.619331 1.082915-0.823654 2.270146-0.728516 3.425781 0.067435-0.829074 0.287304-1.654312 0.728516-2.425781 1.027593-1.797989 2.845237-2.863814 4.765625-3.007813 1.151392-0.086 2.338022 0.159395 3.416015 0.775391 1.772201 1.014258 2.804555 2.793003 2.966797 4.68164 0.180205-2.242829-0.883297-4.48922-2.966797-5.68164-1.077993-0.615996-2.264623-0.863344-3.416015-0.777344z" style="fill:#ffffff;opacity:.2"/>
</svg>

<svg xmlns="http://www.w3.org/2000/svg" width="64" height="64" version="1">
 <path style="opacity:0.2" d="m 53.945696,16.987767 c -0.137999,1.52639 -0.587996,3.05118 -1.399991,4.469771 -3.013981,5.271967 -9.729939,7.103956 -15.003906,4.087975 -3.231979,-1.847989 -5.165967,-5.088768 -5.487965,-8.534147 -0.371998,4.150174 1.63399,8.332148 5.487965,10.534134 5.273967,3.015981 11.989925,1.183993 15.003906,-4.087974 1.167993,-2.039987 1.60199,-4.295773 1.399991,-6.469759 z m -43.863724,2.936981 c -0.4239969,3.13418 1.034994,6.35416 3.949176,8.020149 3.835175,2.191987 8.720745,0.857995 10.914731,-2.977981 0.881994,-1.54399 1.165992,-3.255979 0.971994,-4.897569 -0.133999,0.991594 -0.445998,1.975588 -0.971994,2.897582 -2.193986,3.835976 -7.079556,5.169967 -10.914731,2.977981 -2.290186,-1.309992 -3.661377,-3.585977 -3.949176,-6.020162 z M 6.0975976,36.956841 c -0.4181974,2.771982 0.8479946,5.639964 3.4297783,7.115955 3.3555791,1.917988 7.6283521,0.753995 9.5467401,-2.601984 0.799995,-1.397991 1.035793,-2.951981 0.828195,-4.431972 -0.1254,0.829995 -0.385598,1.65799 -0.828195,2.431985 -1.918388,3.355979 -6.191161,4.519971 -9.5467401,2.601983 -1.9573876,-1.117992 -3.1405802,-3.04598 -3.4297783,-5.115967 z m 35.9837734,0.967994 c -0.423997,3.13398 1.035993,6.35396 3.949975,8.019949 3.833976,2.191986 8.719945,0.857995 10.913931,-2.977981 0.881995,-1.54399 1.165993,-3.25598 0.971994,-4.897969 -0.133999,0.991993 -0.445997,1.975987 -0.971994,2.897981 -2.193986,3.835976 -7.079955,5.169968 -10.913931,2.977982 -2.291986,-1.309992 -3.661977,-3.585978 -3.949975,-6.019962 z m 3.823976,13.019918 c -0.102,0.741995 -0.293998,1.48399 -0.647996,2.189986 -1.731989,3.455978 -5.939963,4.853969 -9.393941,3.12198 -2.107987,-1.057993 -3.437978,-3.039981 -3.769976,-5.207967 -0.395998,2.885982 1.019993,5.829963 3.769976,7.207955 3.453978,1.731989 7.661952,0.333997 9.393941,-3.121981 0.675996,-1.345991 0.861994,-2.805982 0.647996,-4.189973 z m -31.7918,1.025993 c -0.421597,2.419985 0.655396,4.945969 2.910182,6.235961 2.876382,1.643989 6.538559,0.643996 8.184548,-2.231986 0.711996,-1.247992 0.897994,-2.637983 0.677996,-3.951975 -0.115999,0.667996 -0.323998,1.329991 -0.677996,1.951988 -1.645989,2.875981 -5.308166,3.875975 -8.184548,2.231985 -1.62899,-0.931994 -2.624784,-2.517984 -2.910182,-4.235973 z"/>
 <path style="fill:#ffcf3f" d="m 22.977891,46.792585 c 2.876382,1.64429 3.874976,5.308967 2.230786,8.185148 -1.644289,2.876382 -5.308966,3.874976 -8.185148,2.230786 -2.877182,-1.643989 -3.875976,-5.307966 -2.231586,-8.185948 1.644189,-2.875982 5.307966,-3.873976 8.185948,-2.229986 z"/>
 <path style="fill:#7cc327" d="m 16.473332,30.924685 c 3.355779,1.918328 4.520972,6.193761 2.602584,9.54954 -1.918388,3.355979 -6.193761,4.519971 -9.5493401,2.601983 C 6.1707971,41.158221 5.0056044,36.882247 6.9239923,33.526269 8.8423803,30.17029 13.117753,29.006297 16.473332,30.924285 Z"/>
 <path style="fill:#27adc3" d="m 21.969898,13.056798 c 3.833975,2.192386 5.165967,7.077955 2.973981,10.913931 -2.191986,3.833976 -7.078556,5.165967 -10.913531,2.973981 -3.835176,-2.191986 -5.1667679,-7.078555 -2.974382,-10.913531 2.192387,-3.835176 7.078556,-5.166768 10.913932,-2.974381 z"/>
 <path style="fill:#ffcf3f" d="m 48.457731,7.4528329 c 5.273166,3.0145811 7.104155,9.7331391 4.089774,15.0063051 -3.014581,5.273167 -9.733139,7.104156 -15.006306,4.089775 -5.273166,-3.014581 -7.104155,-9.733139 -4.089774,-15.006306 3.014581,-5.2731666 9.733139,-7.1041551 15.006306,-4.0897741 z"/>
 <path style="fill:#7cc327" d="m 53.969696,31.056684 c 3.834976,2.192386 5.166767,7.078556 2.974381,10.913731 -2.192386,3.834976 -7.078555,5.166768 -10.913731,2.974382 -3.834976,-2.192386 -5.166767,-7.078556 -2.974381,-10.913732 2.192386,-3.834975 7.078555,-5.166767 10.913731,-2.974381 z"/>
 <path style="fill:#27adc3" d="m 42.13777,44.744598 c 3.454979,1.732669 4.85117,5.938163 3.118581,9.393141 -1.732669,3.454978 -5.938163,4.851169 -9.393141,3.11858 -3.454978,-1.732669 -4.851169,-5.938162 -3.11858,-9.393141 1.732669,-3.454978 5.938162,-4.851169 9.39314,-3.11858 z"/>
 <path style="opacity:0.2;fill:#ffffff" d="M 43.25 6.0039062 C 39.350025 5.9191072 35.525112 7.9175917 33.453125 11.542969 C 32.386537 13.405662 31.938543 15.447313 32.021484 17.443359 C 32.103407 15.772451 32.564328 14.097121 33.453125 12.544922 C 35.525112 8.9195449 39.350025 6.9210604 43.25 7.0058594 C 45.023989 7.0442592 46.809041 7.512884 48.457031 8.4550781 C 51.834718 10.386337 53.792606 13.836111 53.974609 17.453125 C 54.135713 13.482683 52.145184 9.5618988 48.457031 7.453125 C 46.809041 6.5109309 45.023989 6.042306 43.25 6.0039062 z M 18.566406 12.019531 C 18.179408 11.992331 17.794154 11.994638 17.410156 12.023438 C 14.849572 12.215436 12.425079 13.634465 11.054688 16.03125 C 10.265893 17.411104 9.9775045 18.923152 10.058594 20.400391 C 10.135907 19.250313 10.443794 18.101852 11.054688 17.033203 C 12.425079 14.636418 14.849572 13.21739 17.410156 13.025391 C 17.794154 12.996591 18.179408 12.994284 18.566406 13.021484 C 19.727399 13.102484 20.888803 13.440044 21.966797 14.056641 C 24.38758 15.440159 25.785113 17.897233 25.953125 20.484375 C 26.130747 17.543268 24.699257 14.616334 21.966797 13.054688 C 20.888803 12.43809 19.727399 12.100531 18.566406 12.019531 z M 13.496094 30.017578 C 13.157496 29.993578 12.820373 29.995484 12.484375 30.021484 C 10.243989 30.189483 8.1247738 31.43131 6.9257812 33.529297 C 6.2186593 34.76592 5.9733997 36.119186 6.0644531 37.441406 C 6.1347596 36.446675 6.3966553 35.454638 6.9257812 34.529297 C 8.1247738 32.43131 10.243989 31.189483 12.484375 31.021484 C 12.820373 30.995484 13.157496 30.993578 13.496094 31.017578 C 14.512088 31.089577 15.528862 31.387737 16.472656 31.927734 C 18.574322 33.129245 19.784024 35.254377 19.943359 37.498047 C 20.129242 34.901656 18.885507 32.305194 16.472656 30.925781 C 15.528862 30.385784 14.512088 30.089577 13.496094 30.017578 z M 50.564453 30.021484 C 50.178456 29.993484 49.794153 29.995391 49.410156 30.025391 C 46.850172 30.217389 44.422725 31.635219 43.052734 34.033203 C 42.26415 35.413673 41.976869 36.922108 42.058594 38.400391 C 42.135792 37.250574 42.442117 36.10213 43.052734 35.033203 C 44.422725 32.635219 46.850172 31.217389 49.410156 31.025391 C 49.794153 30.995391 50.178456 30.993484 50.564453 31.021484 C 51.726446 31.101483 52.888804 31.438692 53.966797 32.054688 C 56.387581 33.438705 57.785113 35.897286 57.953125 38.484375 C 58.130747 35.543408 56.699258 32.616898 53.966797 31.054688 C 52.888804 30.438692 51.726446 30.101483 50.564453 30.021484 z M 39.457031 44.017578 C 36.735049 43.841579 34.04218 45.273251 32.742188 47.865234 C 32.159978 49.024485 31.95965 50.265666 32.046875 51.472656 C 32.108839 50.589704 32.320155 49.705554 32.742188 48.865234 C 34.04218 46.273251 36.735049 44.841579 39.457031 45.017578 C 40.363026 45.075577 41.270771 45.31019 42.134766 45.742188 C 44.416184 46.886218 45.761874 49.109884 45.933594 51.482422 C 46.123771 48.750349 44.735171 46.046175 42.134766 44.742188 C 41.270771 44.31019 40.363026 44.075577 39.457031 44.017578 z M 19.558594 46.015625 C 17.638206 46.159624 15.820562 47.227402 14.792969 49.025391 C 14.173638 50.108306 13.969315 51.295537 14.064453 52.451172 C 14.131888 51.622098 14.351757 50.79686 14.792969 50.025391 C 15.820562 48.227402 17.638206 47.161577 19.558594 47.017578 C 20.709986 46.931578 21.896616 47.176973 22.974609 47.792969 C 24.74681 48.807227 25.779164 50.585972 25.941406 52.474609 C 26.121611 50.23178 25.058109 47.985389 22.974609 46.792969 C 21.896616 46.176973 20.709986 45.929625 19.558594 46.015625 z"/>
</svg>
